src/status/16/fcitx-mozc-direct.svg

<?xml version="1.0" encoding="UTF-8"?>
<svg width="16" height="16" version="1.1" xmlns="http://www.w3.org/2000/svg">
 <defs>
  <style id="current-color-scheme" type="text/css">.ColorScheme-Text { color:#363636; } .ColorScheme-Highlight { color:#a0b6cb; } .ColorScheme-NeutralText { color:#f5cba3; } .ColorScheme-PositiveText { color:#aac69f; } .ColorScheme-NegativeText { color:#ec9b97; }</style>
 </defs>
 <path class="ColorScheme-Text" d="m7.498 2h1.0156l3.4863 12h-1.3672l-1.0781-4h-3.1484l-1.0645 4h-1.3418zm0.48828 1.8867-1.3652 5.1133h2.7559z" fill="currentColor"/>
 <path class="ColorScheme-Text" d="m3 0c-1.662 0-3 1.338-3 3v10c0 1.662 1.338 3 3 3h9.9989c1.662 0 3-1.338 3-3v-10c0-1.662-1.338-3-3-3zm0 1h9.9989c1.108 0 2 0.892 2 2v10c0 1.108-0.892 2-2 2h-9.9989c-1.108 0-2-0.892-2-2v-10c0-1.108 0.892-2 2-2z" fill="currentColor"/>
</svg>

<svg xmlns="http://www.w3.org/2000/svg" width="16" height="16">
    <defs>
        <style id="current-color-scheme" type="text/css">
            .ColorScheme-Text{color:#050505;opacity:.7}
        </style>
    </defs>
    <path fill="currentColor" d="M7.498 2h1.016L12 14h-1.367l-1.078-4H6.406l-1.064 4H4zm.488 1.887L6.621 9h2.756z" class="ColorScheme-Text"/>
    <path fill="currentColor" d="M3 0C1.338 0 0 1.338 0 3v10c0 1.662 1.338 3 3 3h9.999c1.662 0 3-1.338 3-3V3c0-1.662-1.338-3-3-3zm0 1h9.999c1.108 0 2 .892 2 2v10c0 1.108-.892 2-2 2H3c-1.108 0-2-.892-2-2V3c0-1.108.892-2 2-2z" class="ColorScheme-Text"/>
</svg>
